X: 1
T: Cousin Jim
C: Angus Fitchet
R: reel
B: Angus Fitchet "The Angus Fitchet Album" 1954 p.23
Z: 2010 John Chambers <jc:trillian.mit.edu>
M: C|
L: 1/8
K: D
G \
| "D"F{G}AAd "G"Bd"D"Ad | "G"Gd"D"Fd "A7"eEEG \
| "D"F{G}AAd "G"Bd"D"Ad | "Em"GB"A7"AG "D"FDD :|
g \
| "D"fdcd "G"Bd"D"Ad | "G"Gd"D"Fd "A7"eEEg \
| "D"fdcd "G"Bd"D"AF | "A7"GECA "D"FDD |]
g \
| "D"fdcd "G"Bd"D"Ad | "G"Gd"D"Fd "A7"eEEG \
| "D"FFAd "G"GGBd | "A7"cege "D"fdd |]
